Origami/24x24/apps/zynaddsubfx.svg

<svg width="24" height="24" version="1.1" viewBox="0 0 24 24" xmlns="http://www.w3.org/2000/svg">
 <path d="m5.0201161 2.4999859a3.0003363 3.0003363 0 0 0 -1.7998267 5.4151046l3.0605839 2.2549105-3.7773894 5.666084a3.0003363 3.0003363 0 0 0 2.2822541 4.656306l14.00017 1.000012a3.0003363 3.0003363 0 0 0 1.934593 -5.450261l-3.333048-2.333036 3.934618-4.8096285a3.0003363 3.0003363 0 0 0 -2.002954 -4.8828717l-14.000169-1.5000181a3.0003363 3.0003363 0 0 0 -0.2988316 -0.0166017z" style="opacity:.2"/>
 <path d="m5.0201161 1.999764a3.0003363 3.0003363 0 0 0 -1.7998267 5.4151045l3.0605839 2.2549103-3.7773894 5.6660842a3.0003363 3.0003363 0 0 0 2.2822541 4.656306l14.00017 1.000012a3.0003363 3.0003363 0 0 0 1.934593 -5.450261l-3.333048-2.333036 3.934618-4.8096286a3.0003363 3.0003363 0 0 0 -2.002954 -4.8828715l-14.000169-1.5000182a3.0003363 3.0003363 0 0 0 -0.2988316 -0.0166017z" style="fill:#4f4f4f"/>
 <path d="m4.9996078 17.500168 4.0000484-6.000073 10.000121 7.000085z" style="opacity:.2"/>
 <path d="m4.9996078 16.999945 4.0000484-6.000072 10.000121 7.000085z" style="fill:#1bd9a5"/>
 <path d="m4.9996078 5.5000223 14.000169 1.5000182-4.500054 5.5000665z" style="opacity:.2"/>
 <path d="m4.9996078 4.9998003 14.000169 1.5000181-4.500054 5.5000666z" style="fill:#1cadf4"/>
 <path d="m5.0201161 1.999764a3.0003363 3.0003363 0 0 0 -3.0068725 3.2363671 3.0003363 3.0003363 0 0 1 3.0068725 -2.7363611 3.0003363 3.0003363 0 0 1 0.2988316 0.0166017l14.000169 1.5000182a3.0003363 3.0003363 0 0 1 2.668001 2.7510098 3.0003363 3.0003363 0 0 0 -2.668001 -3.2510159l-14.000169-1.5000181a3.0003363 3.0003363 0 0 0 -0.2988316 -0.0166017zm1.0371215 8.00498-3.5537537 5.331119a3.0003363 3.0003363 0 0 0 -0.4912169 1.892601 3.0003363 3.0003363 0 0 1 0.4912169 -1.392595l3.7773894-5.666084-0.2236357-0.165041zm11.589984 3.385783-0.259769 0.318363 3.333048 2.333036a3.0003363 3.0003363 0 0 1 1.26564 2.201199 3.0003363 3.0003363 0 0 0 -1.26564 -2.701205l-3.073279-2.151393z" style="fill:#ffffff;opacity:.1"/>
 <path d="m8.9996562 10.999873-4.0000484 6.000072 0.3183634 0.02246 3.681685-5.522527 9.2042128 6.443437 0.795908 0.05664-10.000121-7.000085z" style="fill:#ffffff;opacity:.1"/>
 <path d="m4.9996078 4.9998003 0.7939551 0.584968 12.830233 1.3750167 0.375981-0.4599666-14.000169-1.5000181z" style="fill:#ffffff;opacity:.1"/>
</svg>

<svg xmlns="http://www.w3.org/2000/svg" width="24" height="24" version="1.1" viewBox="0 0 24 24">
 <path style="opacity:0.2" d="M 5.0201161,2.4999859 A 3.0003363,3.0003363 0 0 0 3.2202894,7.9150905 l 3.0605839,2.2549105 -3.7773894,5.666084 a 3.0003363,3.0003363 0 0 0 2.2822541,4.656306 l 14.00017,1.000012 a 3.0003363,3.0003363 0 0 0 1.934593,-5.450261 L 17.387453,13.709106 21.322071,8.8994775 A 3.0003363,3.0003363 0 0 0 19.319117,4.0166058 L 5.3189477,2.5165877 A 3.0003363,3.0003363 0 0 0 5.0201161,2.499986 Z"/>
 <path style="fill:#4f4f4f" d="M 5.0201161,1.999764 A 3.0003363,3.0003363 0 0 0 3.2202894,7.4148685 L 6.2808733,9.6697788 2.5034839,15.335863 a 3.0003363,3.0003363 0 0 0 2.2822541,4.656306 l 14.00017,1.000012 A 3.0003363,3.0003363 0 0 0 20.720501,15.54192 L 17.387453,13.208884 21.322071,8.3992554 A 3.0003363,3.0003363 0 0 0 19.319117,3.5163839 L 5.3189477,2.0163657 A 3.0003363,3.0003363 0 0 0 5.0201161,1.999764 Z"/>
 <path style="opacity:0.2" d="M 4.9996078,17.500168 8.9996562,11.500095 18.999777,18.50018 Z"/>
 <path style="fill:#1bd9a5" d="M 4.9996078,16.999945 8.9996562,10.999873 18.999777,17.999958 Z"/>
 <path style="opacity:0.2" d="M 4.9996078,5.5000223 18.999777,7.0000405 14.499723,12.500107 Z"/>
 <path style="fill:#1cadf4" d="M 4.9996078,4.9998003 18.999777,6.4998184 14.499723,11.999885 Z"/>
 <path style="opacity:0.1;fill:#ffffff" d="M 5.0201161,1.999764 A 3.0003363,3.0003363 0 0 0 2.0132436,5.2361311 3.0003363,3.0003363 0 0 1 5.0201161,2.49977 3.0003363,3.0003363 0 0 1 5.3189477,2.5163717 L 19.319117,4.0163899 A 3.0003363,3.0003363 0 0 1 21.987118,6.7673997 3.0003363,3.0003363 0 0 0 19.319117,3.5163838 L 5.3189477,2.0163657 A 3.0003363,3.0003363 0 0 0 5.0201161,1.999764 Z m 1.0371215,8.00498 -3.5537537,5.331119 A 3.0003363,3.0003363 0 0 0 2.012267,17.228464 3.0003363,3.0003363 0 0 1 2.5034839,15.835869 L 6.2808733,10.169785 6.0572376,10.004744 Z m 11.5899844,3.385783 -0.259769,0.318363 3.333048,2.333036 a 3.0003363,3.0003363 0 0 1 1.26564,2.201199 3.0003363,3.0003363 0 0 0 -1.26564,-2.701205 l -3.073279,-2.151393 z"/>
 <path style="opacity:0.1;fill:#ffffff" d="m 8.9996562,10.999873 -4.0000484,6.000072 0.3183634,0.02246 3.681685,-5.522527 9.2042128,6.443437 0.795908,0.05664 -10.0001208,-7.000085 z"/>
 <path style="opacity:0.1;fill:#ffffff" d="M 4.9996078,4.9998003 5.7935629,5.5847683 18.623796,6.959785 18.999777,6.4998184 4.9996078,4.9998003 Z"/>
</svg>
